build/img/advant-icon-02.svg

<svg width="51" height="52" viewBox="0 0 51 52" fill="none" xmlns="http://www.w3.org/2000/svg">
<g opacity="0.5">
<path d="M20.2219 13.4676H30.747C31.6587 13.4676 32.4004 12.7259 32.4004 11.8144V4.8423C32.4004 3.93067 31.6586 3.18906 30.747 3.18906H28.2947V1.79085C28.2947 0.803359 27.4914 0 26.504 0H24.4651C23.4776 0 22.6742 0.803359 22.6742 1.79085V3.18906H20.2219C19.3103 3.18906 18.5687 3.93077 18.5687 4.8423V11.8143C18.5687 12.7259 19.3103 13.4676 20.2219 13.4676ZM24.1977 1.79085C24.1977 1.64338 24.3176 1.52344 24.4651 1.52344H26.504C26.6514 1.52344 26.7714 1.64338 26.7714 1.79085V3.18906H24.1977V1.79085ZM20.0921 4.8423C20.0921 4.7707 20.1503 4.7125 20.2219 4.7125H30.747C30.8186 4.7125 30.8769 4.7707 30.8769 4.8423V11.8143C30.8769 11.8859 30.8186 11.9441 30.747 11.9441H20.2219C20.1503 11.9441 20.0921 11.8859 20.0921 11.8143V4.8423Z" fill="white"/>
<path d="M13.8318 11.8143V4.8423C13.8318 3.93067 13.0901 3.18906 12.1785 3.18906H9.72613V1.79085C9.72613 0.803359 8.92277 0 7.93528 0H5.89641C4.90902 0 4.10556 0.803359 4.10556 1.79085V3.18906H1.65334C0.741609 3.18906 0 3.93077 0 4.8423V11.8143C0 12.7259 0.741711 13.4675 1.65334 13.4675H12.1785C13.0901 13.4676 13.8318 12.7259 13.8318 11.8143ZM5.629 1.79085C5.629 1.64338 5.74895 1.52344 5.89641 1.52344H7.93528C8.08275 1.52344 8.2027 1.64338 8.2027 1.79085V3.18906H5.629V1.79085ZM1.52344 11.8143V4.8423C1.52344 4.7707 1.58173 4.7125 1.65334 4.7125H12.1785C12.2501 4.7125 12.3084 4.7707 12.3084 4.8423V11.8143C12.3084 11.8859 12.2501 11.9441 12.1785 11.9441H1.65334C1.58173 11.9442 1.52344 11.8859 1.52344 11.8143Z" fill="white"/>
<path d="M48.9215 3.18896H46.4693V1.79085C46.4693 0.803359 45.6659 0 44.6785 0H42.6396C41.6521 0 40.8488 0.803359 40.8488 1.79085V3.18906H38.3964C37.4847 3.18906 36.7431 3.93077 36.7431 4.8423V11.8143C36.7431 12.7259 37.4848 13.4675 38.3964 13.4675H48.9215C49.8333 13.4675 50.5749 12.7258 50.5749 11.8143V4.8423C50.5749 3.93067 49.8333 3.18896 48.9215 3.18896ZM42.3722 1.79085C42.3722 1.64338 42.4921 1.52344 42.6396 1.52344H44.6785C44.8259 1.52344 44.9459 1.64338 44.9459 1.79085V3.18906H42.3722V1.79085ZM49.0514 11.8143C49.0514 11.8859 48.9931 11.9441 48.9215 11.9441H38.3964C38.3248 11.9441 38.2665 11.8859 38.2665 11.8143V4.8423C38.2665 4.7707 38.3248 4.7125 38.3964 4.7125H48.9215C48.9931 4.7125 49.0514 4.7707 49.0514 4.8423V11.8143Z" fill="white"/>
<path d="M43.6591 16.8663C43.2383 16.8663 42.8974 17.2073 42.8974 17.6281C42.8974 18.6023 42.1047 19.3949 41.1305 19.3949H26.215V17.6281C26.215 17.2073 25.8741 16.8663 25.4533 16.8663C25.0325 16.8663 24.6916 17.2073 24.6916 17.6281V19.3949H9.4445C8.47021 19.3949 7.67761 18.6022 7.67761 17.6281C7.67761 17.2073 7.33667 16.8663 6.91589 16.8663C6.49512 16.8663 6.15417 17.2073 6.15417 17.6281C6.15417 19.4424 7.63018 20.9184 9.4445 20.9184H24.6915V23.012C24.6915 23.4328 25.0324 23.7737 25.4532 23.7737C25.874 23.7737 26.2149 23.4328 26.2149 23.012V20.9184H41.1304C42.9447 20.9184 44.4207 19.4424 44.4207 17.6281C44.4208 17.2074 44.0798 16.8663 43.6591 16.8663Z" fill="white"/>
<path d="M34.1419 45.5526C33.7835 43.5514 32.3734 41.8773 30.4619 41.1836L28.8483 40.598V37.9853C28.8563 37.9776 28.8647 37.9704 28.8726 37.9626C29.8514 37.0024 30.4128 35.6703 30.4128 34.3078V31.2869C30.4128 28.5375 28.1761 26.3007 25.4266 26.3007C22.6771 26.3007 20.4403 28.5374 20.4403 31.2869V34.4024C20.4403 35.817 21.0442 37.1042 22.007 38.0166V40.64L20.4703 41.1969C18.5853 41.8812 17.1805 43.5294 16.8042 45.4982L16.3624 47.8065C16.1637 48.8436 16.4356 49.9051 17.1084 50.7191C17.7814 51.533 18.7731 52 19.8295 52H31.0775C32.1251 52 33.1118 51.5391 33.7843 50.7356C34.4569 49.932 34.7368 48.8795 34.5523 47.8483L34.1419 45.5526ZM21.9638 31.2869C21.9638 29.3775 23.5172 27.8241 25.4266 27.8241C27.1391 27.8241 28.5644 29.074 28.8402 30.7093C28.6098 30.8345 28.3675 30.9492 28.116 31.0498C26.6817 31.6243 25.4175 31.5901 24.9561 31.2665C24.6116 31.0249 24.1367 31.1082 23.8951 31.4527C23.6536 31.7971 23.7369 32.2721 24.0814 32.5137C24.5636 32.8519 25.2402 33.0204 26.0167 33.0204C26.8319 33.0204 27.7572 32.8346 28.6825 32.464C28.7521 32.436 28.8207 32.4065 28.8893 32.3769V34.3078C28.8893 35.2638 28.4944 36.1995 27.8058 36.875C27.1373 37.5306 26.2697 37.8846 25.3584 37.8647C23.4866 37.8286 21.9638 36.2754 21.9638 34.4023V31.2869ZM25.3291 39.3879C25.3608 39.3885 25.3924 39.3888 25.4242 39.3888C26.085 39.3888 26.728 39.2551 27.3249 39.0009V40.7705C26.1964 41.5687 24.6598 41.5696 23.5305 40.7696V39.0086C24.0876 39.2408 24.694 39.3756 25.3291 39.3879ZM32.6161 49.7578C32.2337 50.2146 31.673 50.4766 31.0775 50.4766H19.8295C19.229 50.4766 18.6652 50.2112 18.2828 49.7484C17.9004 49.2857 17.7459 48.6824 17.8588 48.0928L18.3006 45.7842C18.5768 44.3399 19.6073 43.1309 20.9899 42.629L22.6636 42.0223C23.4874 42.6012 24.4578 42.8905 25.4279 42.8905C26.4139 42.8905 27.3998 42.5915 28.2315 41.9948L29.9422 42.6157C31.3449 43.1247 32.3794 44.3529 32.6424 45.821L33.0527 48.1166C33.1575 48.7027 32.9984 49.301 32.6161 49.7578Z" fill="white"/>
</g>
</svg>

<svg width="51" height="52" fill="none" xmlns="http://www.w3.org/2000/svg"><path d="M20.222 13.468h10.525c.912 0 1.653-.742 1.653-1.654V4.842c0-.911-.741-1.653-1.653-1.653h-2.452V1.791C28.295.803 27.49 0 26.504 0h-2.039c-.987 0-1.79.803-1.79 1.79v1.4h-2.453c-.912 0-1.653.74-1.653 1.652v6.972c0 .912.741 1.654 1.653 1.654zM24.198 1.79c0-.148.12-.268.267-.268h2.039c.147 0 .267.12.267.268v1.398h-2.573V1.791zm-4.106 3.051a.13.13 0 01.13-.13h10.525a.13.13 0 01.13.13v6.972a.13.13 0 01-.13.13H20.222a.13.13 0 01-.13-.13V4.842zm-6.26 6.973V4.842c0-.911-.742-1.653-1.654-1.653H9.726V1.791C9.726.803 8.923 0 7.936 0h-2.04c-.987 0-1.79.803-1.79 1.79v1.4H1.653C.742 3.19 0 3.93 0 4.841v6.972c0 .912.742 1.653 1.653 1.653h10.525c.912 0 1.654-.741 1.654-1.653zM5.629 1.791c0-.148.12-.268.267-.268h2.04c.147 0 .267.12.267.268v1.398H5.629V1.791zM1.523 11.814V4.842a.13.13 0 01.13-.13h10.525a.13.13 0 01.13.13v6.972a.13.13 0 01-.13.13H1.653a.13.13 0 01-.13-.13zm47.399-8.625h-2.453V1.791A1.791 1.791 0 0044.68 0h-2.04c-.987 0-1.79.803-1.79 1.79v1.4h-2.453c-.911 0-1.653.74-1.653 1.652v6.972c0 .912.742 1.653 1.653 1.653h10.526c.911 0 1.653-.741 1.653-1.653V4.842c0-.911-.742-1.653-1.654-1.653zm-6.55-1.398c0-.148.12-.268.268-.268h2.038c.148 0 .268.12.268.268v1.398h-2.574V1.791zm6.68 10.023a.13.13 0 01-.13.13H38.395a.13.13 0 01-.13-.13V4.842a.13.13 0 01.13-.13h10.526a.13.13 0 01.13.13v6.972zm-5.392 5.052a.762.762 0 00-.763.762c0 .974-.792 1.767-1.767 1.767H26.215v-1.767a.762.762 0 10-1.523 0v1.767H9.444a1.769 1.769 0 01-1.766-1.767.762.762 0 10-1.524 0 3.294 3.294 0 003.29 3.29h15.248v2.094a.762.762 0 101.523 0v-2.094H41.13a3.294 3.294 0 003.29-3.29c0-.42-.34-.762-.76-.762zm-9.518 28.687a5.738 5.738 0 00-3.68-4.37l-1.614-.585v-2.613l.025-.022a5.153 5.153 0 001.54-3.655v-3.021a4.992 4.992 0 00-4.986-4.986 4.992 4.992 0 00-4.987 4.986v3.115a4.98 4.98 0 001.567 3.615v2.623l-1.537.557a5.745 5.745 0 00-3.666 4.301l-.442 2.309a3.518 3.518 0 00.746 2.912A3.52 3.52 0 0019.83 52h11.248c1.048 0 2.035-.46 2.707-1.264a3.522 3.522 0 00.768-2.888l-.41-2.295zM21.964 31.287a3.467 3.467 0 013.463-3.463 3.468 3.468 0 013.413 2.885c-.23.125-.473.24-.724.34-1.434.575-2.698.541-3.16.218a.762.762 0 10-.875 1.247c.483.338 1.16.506 1.936.506.815 0 1.74-.185 2.666-.556.07-.028.138-.057.206-.087v1.93a3.62 3.62 0 01-1.083 2.568 3.373 3.373 0 01-2.448.99 3.48 3.48 0 01-3.394-3.463v-3.115zm3.365 8.1c.032.002.063.002.095.002a4.84 4.84 0 001.9-.388v1.77a3.303 3.303 0 01-3.794-.001v-1.761a4.913 4.913 0 001.8.379zm7.287 10.37a2.002 2.002 0 01-1.538.72H19.83a2 2 0 01-1.547-.729 2 2 0 01-.424-1.655l.442-2.309a4.215 4.215 0 012.689-3.155l1.674-.607a4.806 4.806 0 002.764.869c.986 0 1.972-.3 2.803-.896l1.711.62a4.21 4.21 0 012.7 3.206l.41 2.296a2.002 2.002 0 01-.436 1.64z" opacity=".5" fill="#fff"/></svg>
